X:1
T:Blackley of Hillsdale
M:C
L:1/8
Q:80
C:Michael Grey
S:Strathspey
K:HP
[| A | \
{Gdc}((3d3/2f/2{g}edB){g}A2{GdGe}A3/2B/2 | \
{Gdc}d3/2A/2{gAGAG}A2{ag}a2((3fed) | \
{gef}e3/2f/2{gf}g3/2e/2{g}B2{GdGe}B3/2d/2 |
{gcd}c/2{e}A3/2{GdG}e3/2f/2{gf}g3/2a/2((3gfe){Gdc}((3d3/2f/2{g}edB){g}A2
{GdGe}A3/2B/2 | \
{Gdc}d3/2A/2{gAGAG}A2{ag}a2((3fed) | \
{gef}e3/2f/2{gf}g3/2e/2{g}B2{GdGe}B3/2d/2 |
{gcd}c/2{e}A3/2{a}((3gfe){Gdc}d2{gdG}d|] [ | \
f | \
{ag}a3/2f/2{g}f/2a3/2{fg}((3f3/2a/2fed) | \
{ag}a3/2f/2{Gdc}d3/2f/2{gAGAG}((3A/2a3/2fed) |
{gf}g3/2f/2{gef}e3/2f/2{gf}g3/2e/2{gcd}c/2{e}A3/2 | \
{gAGAG}A/2e3/2{A}e3/2f/2{gf}((3g3/2a/2gfe){ag}a3/2f/2{g}f/2a3/2{fg}((3f3
/2a/2fed) | \
{ag}a3/2f/2{Gdc}d3/2f/2{gAGAG}((3A/2a3/2fed) |
{gef}e3/2f/2{gf}g3/2e/2{g}B2{GdGe}B3/2d/2 | \
{gcd}c/2{e}A3/2{a}((3gfe){Gdc}d2{gdG}d|] [ | \
e |
{gAGAG}A2{gBd}B/2{e}G3/2{g}A3/2B/2{Gdc}d3/2e/2 | \
{g}f3/2A/2{gAGAG}A2{ag}a2((3fed) | \
{gef}e3/2A/2{gf}g3/2f/2{gef}e3/2A/2{gef}e3/2d/2 |
{gcd}c/2{e}A3/2{GdG}e3/2f/2{gf}g3/2a/2((3gfe){gAGAG}A2{gBd}B/2{e}G3/2{g}
A3/2B/2{Gdc}d3/2e/2 | \
{g}f3/2A/2{gAGAG}A2{ag}a2((3fed) | \
{gef}e3/2f/2{gf}g3/2e/2{g}B2{GdGe}B3/2d/2 |
{gcd}c/2{e}A3/2{a}((3gfe){Gdc}d2{gdG}d|] [ | \
f | \
{ag}a3/2f/2{gf}g3/2e/2{g}f2{GdG}f3/2g/2 | \
a2{GdG}a3/2f/2{gAGAG}A/2a3/2((3fed) |
{gf}g3/2e/2{gfg}f3/2d/2{g}e2{GdG}e3/2d/2 | \
{gcd}c/2{e}A3/2{GdG}e3/2f/2{gf}g3/2a/2((3gfe){ag}a3/2f/2{gf}g3/2e/2{gfg}
((3f3/2a/2fed) | \
{ag}a3/2f/2{Gdc}d3/2f/2{gAGAG}((3A/2a3/2fed) |
{gef}e3/2f/2{gf}g3/2e/2{g}B2{GdGe}B3/2d/2 | \
{gcd}c/2{e}A3/2{a}((3gfe){Gdc}d2{gdG}d|]
